X: 23927
T: Loch Tay Boat Song
R: waltz
M: 3/4
K: Cmajor
|c|e2 dc2e|g3e2g|c'2 ba2g|g3e2c|
f2 ga2g|g3e2c|e2 dd2e|f2 ed2c|
e2 dc2e|g3e2g|c'2 ba2g|g3e2c|
f2 ga2g|g3e2c|e2 dc2B|(c3c2)|
g|c'2 ba2g|g3e2g|c'2 ba2g|g3e2c|
f2 ga2g|g3e2c|e2 dd2e|f2 ed2c|
e2 dc2e|g3e2g|c'2 ba2g|g3e2c|
f2 ga2g|g3e2c|e2 dc2B|(c3c2)|

